X:719
T: BEGRABT DEN LEIB IN SEINE GRUFT
N: E2168
O: Europa, Mitteleuropa, Deutschland
R: geistlich, Moral - Lied, Tod; Choral
M: 4/4
L: 1/4
K: F
F | GFEF | GAF
F | GABA | FGA
F | GGAG | FED
G | AGFD | FGF

